X: 1
T:Follow Me Down to Carlow
B:Joyce, P. W.; "Old Irish Folk Music and Songs"
R:single jig
L:1/8
M:6/8
K:G
ABA A2 G|E2 F G2 B|ABA A2 B|c2 d e2 d|
c2 A B2 G|E2 F G2 B|ABA B2 G|A3 A3||
e2 g g3|e2 a a3|BcB B2 A|G2 A B3|
e2 g g3|e2 a a3|BcB B2 G|A3 A3|
e2 g g3|e2 a a3|BcB B2 A|G2 A B2 d|
e2 f g2 e|a2 f ged|BcB B2 G|A3 A3||
